src/icons/editor/glyph/LineThicknessIcon.svg

<svg xmlns="http://www.w3.org/2000/svg" width="24" height="24" fill="currentColor" viewBox="0 0 24 24">
  <path d="M10 3h2v18h-2V3Zm6 0h3v18h-3V3ZM5 3h1v18H5V3Z"/>
</svg>

<svg width="24" height="24" viewBox="0 0 24 24" fill="none" xmlns="http://www.w3.org/2000/svg">
<path d="M10 3H12V21H10V3Z" fill="currentColor"/>
<path d="M16 3H19V21H16V3Z" fill="currentColor"/>
<path d="M5 3H6V21H5V3Z" fill="currentColor"/>
</svg>
